icons/browse.svg

<svg width="20" height="16" xmlns="http://www.w3.org/2000/svg"><path d="M2,4 L2,14 L18,14 L18,4 L2,4 Z M3,3 C3.55228475,3 4,2.55228475 4,2 C4,1.44771525 3.55228475,1 3,1 C2.44771525,1 2,1.44771525 2,2 C2,2.55228475 2.44771525,3 3,3 Z M6,3 C6.55228475,3 7,2.55228475 7,2 C7,1.44771525 6.55228475,1 6,1 C5.44771525,1 5,1.44771525 5,2 C5,2.55228475 5.44771525,3 6,3 Z M2,0 L18,0 C19.1045695,0 20,0.8954305 20,2 L20,14 C20,15.1045695 19.1045695,16 18,16 L2,16 C0.8954305,16 0,15.1045695 0,14 L0,2 C0,0.8954305 0.8954305,0 2,0 Z"/></svg>

<svg width="20" height="16" xmlns="http://www.w3.org/2000/svg" fill="currentColor"><path d="M2 4v10h16V4H2Zm1-1a1 1 0 1 0 0-2 1 1 0 0 0 0 2Zm3 0a1 1 0 1 0 0-2 1 1 0 0 0 0 2ZM2 0h16a2 2 0 0 1 2 2v12a2 2 0 0 1-2 2H2a2 2 0 0 1-2-2V2a2 2 0 0 1 2-2Z"/></svg>
